X: 54
T:Old Walls of Liscarroll (#164), The
M:6/8
L:1/8
S:Prof. P.D. Reidy manuscript
K:D
A|DFF DGG|EFF DEE|DFF GEA|FDD D2 E|
DFF GFG|A/2B/2cA fed|ecA GFE|FDD D2:|
|:A|cBc dfd|ecA AGE|cBc dcA|AGE GAB|
cBc dcd|efg fed|ecA GFE|FDD D2:|
|:A|dcd AGF|EDE GFE|dcd AFA|GFE D2 A|
dcd AGF|E/2F/2GE fed|ecA GFE|FDD D2:|
|:A|dFF AFF|dFF AGF|GEE cEE|GBA GFE|
dFF AFF|A/2B/2de fed|ecA GFE|FDD D2:||
%
% In the year 1902 a thin oblong book of manuscript music came to
% hand from Prof. P.D. Reidy "Professor of Dancing, London and
% Castleisland". Altho it included forty tunes from the repertory of
% five competent fiddlers, nearly all were variants of tunes already
% in our possession. The above as played by Daniel J. Kelleher
% is one of the exceptions. There can be little doubt that Mr.
% Reidy's title was well deserved, because his fame as a dancer
% and dancing master in early life in North Kerry was successfully
% maintained later in life in London, where he was esteemed as
% an authority on the subject. Frequent mention of his name
% appears in "Irish Minstrels and Musicians".

